images/50955660.svg

<?xml version="1.0" encoding="UTF-8"?>
<svg xmlns="http://www.w3.org/2000/svg" xmlns:xlink="http://www.w3.org/1999/xlink" width="300pt" height="300pt" viewBox="0 0 300 300" version="1.1">
<defs>
<g>
<symbol overflow="visible" id="glyph0-0">
<path style="stroke:none;" d="M 0.453125 1.59375 L 0.453125 -6.34375 L 4.953125 -6.34375 L 4.953125 1.59375 Z M 0.953125 1.09375 L 4.453125 1.09375 L 4.453125 -5.84375 L 0.953125 -5.84375 Z M 0.953125 1.09375 "/>
</symbol>
<symbol overflow="visible" id="glyph0-1">
<path style="stroke:none;" d="M 0.890625 -6.5625 L 4.65625 -6.5625 L 4.65625 -5.8125 L 1.765625 -5.8125 L 1.765625 -3.875 L 4.375 -3.875 L 4.375 -3.140625 L 1.765625 -3.140625 L 1.765625 0 L 0.890625 0 Z M 0.890625 -6.5625 "/>
</symbol>
<symbol overflow="visible" id="glyph0-2">
<path style="stroke:none;" d="M 0.890625 -6.5625 L 2.078125 -6.5625 L 4.984375 -1.078125 L 4.984375 -6.5625 L 5.84375 -6.5625 L 5.84375 0 L 4.65625 0 L 1.75 -5.484375 L 1.75 0 L 0.890625 0 Z M 0.890625 -6.5625 "/>
</symbol>
<symbol overflow="visible" id="glyph0-3">
<path style="stroke:none;" d="M 0.890625 -6.5625 L 1.765625 -6.5625 L 1.765625 -3.875 L 5 -3.875 L 5 -6.5625 L 5.890625 -6.5625 L 5.890625 0 L 5 0 L 5 -3.125 L 1.765625 -3.125 L 1.765625 0 L 0.890625 0 Z M 0.890625 -6.5625 "/>
</symbol>
<symbol overflow="visible" id="glyph0-4">
<path style="stroke:none;" d="M 3.546875 -5.953125 C 2.898438 -5.953125 2.382812 -5.710938 2 -5.234375 C 1.625 -4.753906 1.4375 -4.101562 1.4375 -3.28125 C 1.4375 -2.445312 1.625 -1.789062 2 -1.3125 C 2.382812 -0.832031 2.898438 -0.59375 3.546875 -0.59375 C 4.191406 -0.59375 4.703125 -0.832031 5.078125 -1.3125 C 5.453125 -1.789062 5.640625 -2.445312 5.640625 -3.28125 C 5.640625 -4.101562 5.453125 -4.753906 5.078125 -5.234375 C 4.703125 -5.710938 4.191406 -5.953125 3.546875 -5.953125 Z M 3.546875 -6.6875 C 4.460938 -6.6875 5.195312 -6.375 5.75 -5.75 C 6.300781 -5.132812 6.578125 -4.3125 6.578125 -3.28125 C 6.578125 -2.238281 6.300781 -1.410156 5.75 -0.796875 C 5.195312 -0.179688 4.460938 0.125 3.546875 0.125 C 2.617188 0.125 1.878906 -0.179688 1.328125 -0.796875 C 0.773438 -1.410156 0.5 -2.238281 0.5 -3.28125 C 0.5 -4.3125 0.773438 -5.132812 1.328125 -5.75 C 1.878906 -6.375 2.617188 -6.6875 3.546875 -6.6875 Z M 3.546875 -6.6875 "/>
</symbol>
</g>
</defs>
<g id="surface18909">
<rect x="0" y="0" width="300" height="300" style="fill:rgb(100%,100%,100%);fill-opacity:1;stroke:none;"/>
<path style="fill:none;stroke-width:1.2;stroke-linecap:butt;stroke-linejoin:miter;stroke:rgb(20%,80%,80%);stroke-opacity:1;stroke-miterlimit:10;" d="M 72.128906 191.296875 L 71.074219 182.480469 "/>
<path style="fill:none;stroke-width:1.2;stroke-linecap:butt;stroke-linejoin:miter;stroke:rgb(0%,0%,0%);stroke-opacity:1;stroke-miterlimit:10;" d="M 71.074219 182.480469 L 70.015625 173.667969 "/>
<path style=" stroke:none;fill-rule:nonzero;fill:rgb(100%,100%,100%);fill-opacity:1;" d="M 69.128906 185.796875 L 75.128906 185.796875 L 75.128906 196.796875 L 69.128906 196.796875 Z M 69.128906 185.796875 "/>
<g style="fill:rgb(20%,80%,80%);fill-opacity:1;">
  <use xlink:href="#glyph0-1" x="69.128906" y="194.459961"/>
</g>
<path style="fill:none;stroke-width:1.2;stroke-linecap:butt;stroke-linejoin:miter;stroke:rgb(0%,0%,0%);stroke-opacity:1;stroke-miterlimit:10;" d="M 70.015625 173.667969 L 53.691406 166.683594 "/>
<path style="fill:none;stroke-width:1.2;stroke-linecap:butt;stroke-linejoin:miter;stroke:rgb(0%,0%,0%);stroke-opacity:1;stroke-miterlimit:10;" d="M 70.027344 169.128906 L 56.964844 163.539062 "/>
<path style="fill:none;stroke-width:1.2;stroke-linecap:butt;stroke-linejoin:miter;stroke:rgb(0%,0%,0%);stroke-opacity:1;stroke-miterlimit:10;" d="M 84.226562 163.019531 L 70.015625 173.667969 "/>
<path style="fill:none;stroke-width:1.2;stroke-linecap:butt;stroke-linejoin:miter;stroke:rgb(0%,0%,0%);stroke-opacity:1;stroke-miterlimit:10;" d="M 53.691406 166.683594 L 51.574219 149.050781 "/>
<path style="fill:none;stroke-width:1.2;stroke-linecap:butt;stroke-linejoin:miter;stroke:rgb(0%,0%,0%);stroke-opacity:1;stroke-miterlimit:10;" d="M 51.574219 149.050781 L 43.414062 145.558594 "/>
<path style="fill:none;stroke-width:1.2;stroke-linecap:butt;stroke-linejoin:miter;stroke:rgb(20%,80%,80%);stroke-opacity:1;stroke-miterlimit:10;" d="M 43.414062 145.558594 L 35.25 142.066406 "/>
<path style="fill:none;stroke-width:1.2;stroke-linecap:butt;stroke-linejoin:miter;stroke:rgb(0%,0%,0%);stroke-opacity:1;stroke-miterlimit:10;" d="M 51.574219 149.050781 L 65.789062 138.40625 "/>
<path style="fill:none;stroke-width:1.2;stroke-linecap:butt;stroke-linejoin:miter;stroke:rgb(0%,0%,0%);stroke-opacity:1;stroke-miterlimit:10;" d="M 55.503906 151.332031 L 66.871094 142.8125 "/>
<path style=" stroke:none;fill-rule:nonzero;fill:rgb(100%,100%,100%);fill-opacity:1;" d="M 29.25 136.566406 L 35.25 136.566406 L 35.25 147.566406 L 29.25 147.566406 Z M 29.25 136.566406 "/>
<g style="fill:rgb(20%,80%,80%);fill-opacity:1;">
  <use xlink:href="#glyph0-1" x="29.25" y="145.229492"/>
</g>
<path style="fill:none;stroke-width:1.2;stroke-linecap:butt;stroke-linejoin:miter;stroke:rgb(0%,0%,0%);stroke-opacity:1;stroke-miterlimit:10;" d="M 65.789062 138.40625 L 82.113281 145.390625 "/>
<path style="fill:none;stroke-width:1.2;stroke-linecap:butt;stroke-linejoin:miter;stroke:rgb(0%,0%,0%);stroke-opacity:1;stroke-miterlimit:10;" d="M 82.113281 145.390625 L 84.226562 163.019531 "/>
<path style="fill:none;stroke-width:1.2;stroke-linecap:butt;stroke-linejoin:miter;stroke:rgb(0%,0%,0%);stroke-opacity:1;stroke-miterlimit:10;" d="M 78.175781 147.648438 L 79.867188 161.753906 "/>
<path style="fill:none;stroke-width:1.2;stroke-linecap:butt;stroke-linejoin:miter;stroke:rgb(0%,0%,0%);stroke-opacity:1;stroke-miterlimit:10;" d="M 84.226562 163.019531 L 92.390625 166.511719 "/>
<path style="fill:none;stroke-width:1.2;stroke-linecap:butt;stroke-linejoin:miter;stroke:rgb(0%,0%,100%);stroke-opacity:1;stroke-miterlimit:10;" d="M 92.390625 166.511719 L 100.554688 170.003906 "/>
<path style="fill:none;stroke-width:1.2;stroke-linecap:butt;stroke-linejoin:miter;stroke:rgb(0%,0%,100%);stroke-opacity:1;stroke-miterlimit:10;" d="M 100.554688 170.003906 L 107.660156 164.683594 "/>
<path style="fill:none;stroke-width:1.2;stroke-linecap:butt;stroke-linejoin:miter;stroke:rgb(0%,0%,0%);stroke-opacity:1;stroke-miterlimit:10;" d="M 107.660156 164.683594 L 114.765625 159.359375 "/>
<path style=" stroke:none;fill-rule:nonzero;fill:rgb(100%,100%,100%);fill-opacity:1;" d="M 93.554688 164.503906 L 107.554688 164.503906 L 107.554688 175.503906 L 93.554688 175.503906 Z M 93.554688 164.503906 "/>
<g style="fill:rgb(0%,0%,100%);fill-opacity:1;">
  <use xlink:href="#glyph0-2" x="93.554688" y="173.166992"/>
  <use xlink:href="#glyph0-3" x="100.532227" y="173.166992"/>
</g>
<path style="fill:none;stroke-width:1.2;stroke-linecap:butt;stroke-linejoin:miter;stroke:rgb(0%,0%,0%);stroke-opacity:1;stroke-miterlimit:10;" d="M 114.765625 159.359375 L 131.089844 166.34375 "/>
<path style="fill:none;stroke-width:1.2;stroke-linecap:butt;stroke-linejoin:miter;stroke:rgb(0%,0%,0%);stroke-opacity:1;stroke-miterlimit:10;" d="M 118.039062 156.214844 L 131.101562 161.804688 "/>
<path style="fill:none;stroke-width:1.2;stroke-linecap:butt;stroke-linejoin:miter;stroke:rgb(0%,0%,0%);stroke-opacity:1;stroke-miterlimit:10;" d="M 112.652344 141.726562 L 114.765625 159.359375 "/>
<path style="fill:none;stroke-width:1.2;stroke-linecap:butt;stroke-linejoin:miter;stroke:rgb(0%,0%,0%);stroke-opacity:1;stroke-miterlimit:10;" d="M 131.089844 166.34375 L 145.300781 155.695312 "/>
<path style="fill:none;stroke-width:1.2;stroke-linecap:butt;stroke-linejoin:miter;stroke:rgb(0%,0%,0%);stroke-opacity:1;stroke-miterlimit:10;" d="M 145.300781 155.695312 L 143.1875 138.066406 "/>
<path style="fill:none;stroke-width:1.2;stroke-linecap:butt;stroke-linejoin:miter;stroke:rgb(0%,0%,0%);stroke-opacity:1;stroke-miterlimit:10;" d="M 149.238281 153.4375 L 147.546875 139.332031 "/>
<path style="fill:none;stroke-width:1.2;stroke-linecap:butt;stroke-linejoin:miter;stroke:rgb(0%,0%,0%);stroke-opacity:1;stroke-miterlimit:10;" d="M 160.40625 165.035156 L 145.300781 155.695312 "/>
<path style="fill:none;stroke-width:1.2;stroke-linecap:butt;stroke-linejoin:miter;stroke:rgb(0%,0%,0%);stroke-opacity:1;stroke-miterlimit:10;" d="M 143.1875 138.066406 L 126.863281 131.082031 "/>
<path style="fill:none;stroke-width:1.2;stroke-linecap:butt;stroke-linejoin:miter;stroke:rgb(0%,0%,0%);stroke-opacity:1;stroke-miterlimit:10;" d="M 143.1875 138.066406 L 155.652344 125.421875 "/>
<path style="fill:none;stroke-width:1.2;stroke-linecap:butt;stroke-linejoin:miter;stroke:rgb(0%,0%,0%);stroke-opacity:1;stroke-miterlimit:10;" d="M 126.863281 131.082031 L 112.652344 141.726562 "/>
<path style="fill:none;stroke-width:1.2;stroke-linecap:butt;stroke-linejoin:miter;stroke:rgb(0%,0%,0%);stroke-opacity:1;stroke-miterlimit:10;" d="M 127.945312 135.488281 L 116.578125 144.007812 "/>
<path style="fill:none;stroke-width:1.2;stroke-linecap:butt;stroke-linejoin:miter;stroke:rgb(0%,0%,0%);stroke-opacity:1;stroke-miterlimit:10;" d="M 157.621094 124.714844 L 154.628906 116.355469 "/>
<path style="fill:none;stroke-width:1.2;stroke-linecap:butt;stroke-linejoin:miter;stroke:rgb(100%,0%,0%);stroke-opacity:1;stroke-miterlimit:10;" d="M 154.628906 116.355469 L 151.636719 108 "/>
<path style="fill:none;stroke-width:1.2;stroke-linecap:butt;stroke-linejoin:miter;stroke:rgb(0%,0%,0%);stroke-opacity:1;stroke-miterlimit:10;" d="M 153.6875 126.125 L 150.695312 117.765625 "/>
<path style="fill:none;stroke-width:1.2;stroke-linecap:butt;stroke-linejoin:miter;stroke:rgb(100%,0%,0%);stroke-opacity:1;stroke-miterlimit:10;" d="M 150.695312 117.765625 L 147.703125 109.40625 "/>
<path style="fill:none;stroke-width:1.2;stroke-linecap:butt;stroke-linejoin:miter;stroke:rgb(0%,0%,0%);stroke-opacity:1;stroke-miterlimit:10;" d="M 155.652344 125.421875 L 173.3125 127.28125 "/>
<path style=" stroke:none;fill-rule:nonzero;fill:rgb(100%,100%,100%);fill-opacity:1;" d="M 141.667969 103.203125 L 149.667969 103.203125 L 149.667969 114.203125 L 141.667969 114.203125 Z M 141.667969 103.203125 "/>
<g style="fill:rgb(100%,0%,0%);fill-opacity:1;">
  <use xlink:href="#glyph0-4" x="141.667969" y="111.866211"/>
</g>
<path style="fill:none;stroke-width:1.2;stroke-linecap:butt;stroke-linejoin:miter;stroke:rgb(0%,0%,0%);stroke-opacity:1;stroke-miterlimit:10;" d="M 173.3125 127.28125 L 182.867188 142.25 "/>
<path style="fill:none;stroke-width:1.2;stroke-linecap:butt;stroke-linejoin:miter;stroke:rgb(0%,0%,0%);stroke-opacity:1;stroke-miterlimit:10;" d="M 177.789062 126.53125 L 185.433594 138.503906 "/>
<path style="fill:none;stroke-width:1.2;stroke-linecap:butt;stroke-linejoin:miter;stroke:rgb(0%,0%,0%);stroke-opacity:1;stroke-miterlimit:10;" d="M 181.5 111.523438 L 173.3125 127.28125 "/>
<path style="fill:none;stroke-width:1.2;stroke-linecap:butt;stroke-linejoin:miter;stroke:rgb(0%,0%,0%);stroke-opacity:1;stroke-miterlimit:10;" d="M 182.867188 142.25 L 177.125 159.050781 "/>
<path style="fill:none;stroke-width:1.2;stroke-linecap:butt;stroke-linejoin:miter;stroke:rgb(0%,0%,0%);stroke-opacity:1;stroke-miterlimit:10;" d="M 182.867188 142.25 L 200.609375 141.460938 "/>
<path style="fill:none;stroke-width:1.2;stroke-linecap:butt;stroke-linejoin:miter;stroke:rgb(0%,0%,0%);stroke-opacity:1;stroke-miterlimit:10;" d="M 177.125 159.050781 L 160.40625 165.035156 "/>
<path style="fill:none;stroke-width:1.2;stroke-linecap:butt;stroke-linejoin:miter;stroke:rgb(0%,0%,0%);stroke-opacity:1;stroke-miterlimit:10;" d="M 200.609375 141.460938 L 205.382812 148.941406 "/>
<path style="fill:none;stroke-width:1.2;stroke-linecap:butt;stroke-linejoin:miter;stroke:rgb(100%,0%,0%);stroke-opacity:1;stroke-miterlimit:10;" d="M 205.382812 148.941406 L 210.160156 156.425781 "/>
<path style="fill:none;stroke-width:1.2;stroke-linecap:butt;stroke-linejoin:miter;stroke:rgb(0%,0%,0%);stroke-opacity:1;stroke-miterlimit:10;" d="M 200.609375 141.460938 L 208.792969 125.699219 "/>
<path style="fill:none;stroke-width:1.2;stroke-linecap:butt;stroke-linejoin:miter;stroke:rgb(0%,0%,0%);stroke-opacity:1;stroke-miterlimit:10;" d="M 197.71875 137.957031 L 204.265625 125.351562 "/>
<path style="fill:none;stroke-width:1.2;stroke-linecap:butt;stroke-linejoin:miter;stroke:rgb(100%,0%,0%);stroke-opacity:1;stroke-miterlimit:10;" d="M 210.160156 156.425781 L 219.03125 156.03125 "/>
<path style="fill:none;stroke-width:1.2;stroke-linecap:butt;stroke-linejoin:miter;stroke:rgb(0%,0%,0%);stroke-opacity:1;stroke-miterlimit:10;" d="M 219.03125 156.03125 L 227.902344 155.636719 "/>
<path style=" stroke:none;fill-rule:nonzero;fill:rgb(100%,100%,100%);fill-opacity:1;" d="M 206.160156 150.925781 L 214.160156 150.925781 L 214.160156 161.925781 L 206.160156 161.925781 Z M 206.160156 150.925781 "/>
<g style="fill:rgb(100%,0%,0%);fill-opacity:1;">
  <use xlink:href="#glyph0-4" x="206.160156" y="159.588867"/>
</g>
<path style=" stroke:none;fill-rule:nonzero;fill:rgb(0%,0%,0%);fill-opacity:1;" d="M 237.457031 170.605469 L 230.542969 153.949219 L 225.261719 157.320312 Z M 237.457031 170.605469 "/>
<path style="fill:none;stroke-width:1.2;stroke-linecap:butt;stroke-linejoin:miter;stroke:rgb(0%,0%,0%);stroke-opacity:1;stroke-miterlimit:10;" d="M 237.457031 170.605469 L 233.363281 178.484375 "/>
<path style="fill:none;stroke-width:1.2;stroke-linecap:butt;stroke-linejoin:miter;stroke:rgb(100%,0%,0%);stroke-opacity:1;stroke-miterlimit:10;" d="M 233.363281 178.484375 L 229.269531 186.363281 "/>
<path style="fill:none;stroke-width:1.2;stroke-linecap:butt;stroke-linejoin:miter;stroke:rgb(0%,0%,0%);stroke-opacity:1;stroke-miterlimit:10;" d="M 237.457031 170.605469 L 255.195312 169.8125 "/>
<path style=" stroke:none;fill-rule:nonzero;fill:rgb(100%,100%,100%);fill-opacity:1;" d="M 214.269531 180.863281 L 229.269531 180.863281 L 229.269531 191.863281 L 214.269531 191.863281 Z M 214.269531 180.863281 "/>
<g style="fill:rgb(100%,0%,0%);fill-opacity:1;">
  <use xlink:href="#glyph0-3" x="214.269531" y="189.526367"/>
  <use xlink:href="#glyph0-4" x="221.28418" y="189.526367"/>
</g>
<path style="fill:none;stroke-width:1.2;stroke-linecap:butt;stroke-linejoin:miter;stroke:rgb(0%,0%,0%);stroke-opacity:1;stroke-miterlimit:10;" d="M 255.195312 169.8125 L 259.972656 177.296875 "/>
<path style="fill:none;stroke-width:1.2;stroke-linecap:butt;stroke-linejoin:miter;stroke:rgb(100%,0%,0%);stroke-opacity:1;stroke-miterlimit:10;" d="M 259.972656 177.296875 L 264.75 184.78125 "/>
<path style=" stroke:none;fill-rule:nonzero;fill:rgb(100%,100%,100%);fill-opacity:1;" d="M 257.75 179.28125 L 272.75 179.28125 L 272.75 190.28125 L 257.75 190.28125 Z M 257.75 179.28125 "/>
<g style="fill:rgb(100%,0%,0%);fill-opacity:1;">
  <use xlink:href="#glyph0-4" x="257.75" y="187.944336"/>
  <use xlink:href="#glyph0-3" x="265.091797" y="187.944336"/>
</g>
<path style="fill:none;stroke-width:1.2;stroke-linecap:butt;stroke-linejoin:miter;stroke:rgb(0%,0%,0%);stroke-opacity:1;stroke-miterlimit:10;" d="M 208.792969 125.699219 L 199.238281 110.734375 "/>
<path style="fill:none;stroke-width:1.2;stroke-linecap:butt;stroke-linejoin:miter;stroke:rgb(0%,0%,0%);stroke-opacity:1;stroke-miterlimit:10;" d="M 199.238281 110.734375 L 181.5 111.523438 "/>
<path style="fill:none;stroke-width:1.2;stroke-linecap:butt;stroke-linejoin:miter;stroke:rgb(0%,0%,0%);stroke-opacity:1;stroke-miterlimit:10;" d="M 197.648438 114.988281 L 183.457031 115.621094 "/>
</g>
</svg>

<svg xmlns="http://www.w3.org/2000/svg" xmlns:xlink="http://www.w3.org/1999/xlink" width="300pt" height="300pt" viewBox="0 0 300 300"><defs><symbol overflow="visible"><path d="M.453 1.594v-7.938h4.5v7.938zm.5-.5h3.5v-6.938h-3.5zm0 0"/></symbol><symbol overflow="visible" id="a"><path d="M.89-6.563h3.766v.75h-2.89v1.938h2.61v.734h-2.61V0H.89zm0 0"/></symbol><symbol overflow="visible" id="b"><path d="M.89-6.563H2.08l2.906 5.485v-5.484h.86V0H4.656L1.75-5.484V0H.89zm0 0"/></symbol><symbol overflow="visible" id="c"><path d="M.89-6.563h.876v2.688H5v-2.688h.89V0H5v-3.125H1.766V0H.89zm0 0"/></symbol><symbol overflow="visible" id="d"><path d="M3.547-5.953c-.65 0-1.164.242-1.547.72-.375.48-.563 1.13-.563 1.952 0 .835.188 1.49.563 1.967.383.48.898.72 1.547.72.644 0 1.156-.24 1.53-.72.376-.476.564-1.132.564-1.968 0-.822-.187-1.474-.562-1.954-.375-.477-.887-.72-1.53-.72zm0-.734c.914 0 1.648.312 2.203.937.55.617.828 1.438.828 2.47 0 1.042-.277 1.87-.828 2.483-.555.617-1.29.922-2.203.922-.93 0-1.668-.305-2.22-.922C.774-1.41.5-2.237.5-3.28c0-1.033.273-1.853.828-2.47.55-.625 1.29-.938 2.22-.938zm0 0"/></symbol></defs><g><path fill="#fff" d="M0 0h300v300H0z"/><path d="M72.13 191.297l-1.056-8.817" stroke-width="1.2" stroke="#3cc" stroke-miterlimit="10" fill="none"/><path d="M71.074 182.48l-1.058-8.812" stroke-width="1.2" stroke="#000" stroke-miterlimit="10" fill="none"/><path d="M69.13 185.797h6v11h-6zm0 0" fill="#fff"/><use xlink:href="#a" x="69.129" y="194.46" fill="#3cc"/><path d="M70.016 173.668l-16.325-6.984M70.027 169.13l-13.062-5.59M84.227 163.02l-14.21 10.648M53.69 166.684l-2.116-17.633M51.574 149.05l-8.16-3.49" stroke-width="1.2" stroke="#000" stroke-miterlimit="10" fill="none"/><path d="M43.414 145.56l-8.164-3.494" stroke-width="1.2" stroke="#3cc" stroke-miterlimit="10" fill="none"/><path d="M51.574 149.05l14.215-10.644M55.504 151.332l11.367-8.52" stroke-width="1.2" stroke="#000" stroke-miterlimit="10" fill="none"/><path d="M29.25 136.566h6v11h-6zm0 0" fill="#fff"/><use xlink:href="#a" x="29.25" y="145.229" fill="#3cc"/><path d="M65.79 138.406l16.323 6.985M82.113 145.39l2.114 17.63M78.176 147.648l1.69 14.106M84.227 163.02l8.164 3.492" stroke-width="1.2" stroke="#000" stroke-miterlimit="10" fill="none"/><path d="M92.39 166.512l8.165 3.492M100.555 170.004l7.105-5.32" stroke-width="1.2" stroke="#00f" stroke-miterlimit="10" fill="none"/><path d="M107.66 164.684l7.106-5.325" stroke-width="1.2" stroke="#000" stroke-miterlimit="10" fill="none"/><path d="M93.555 164.504h14v11h-14zm0 0" fill="#fff"/><g fill="#00f"><use xlink:href="#b" x="93.555" y="173.167"/><use xlink:href="#c" x="100.532" y="173.167"/></g><path d="M114.766 159.36l16.324 6.984M118.04 156.215l13.062 5.59M112.652 141.727l2.114 17.632M131.09 166.344l14.21-10.65M145.3 155.695l-2.113-17.63M149.238 153.438l-1.69-14.106M160.406 165.035l-15.105-9.34M143.188 138.066l-16.325-6.984M143.188 138.066l12.464-12.644M126.863 131.082l-14.21 10.645M127.945 135.488l-11.367 8.52M157.62 124.715l-2.99-8.36" stroke-width="1.2" stroke="#000" stroke-miterlimit="10" fill="none"/><path d="M154.63 116.355L151.636 108" stroke-width="1.2" stroke="#f00" stroke-miterlimit="10" fill="none"/><path d="M153.688 126.125l-2.993-8.36" stroke-width="1.2" stroke="#000" stroke-miterlimit="10" fill="none"/><path d="M150.695 117.766l-2.992-8.36" stroke-width="1.2" stroke="#f00" stroke-miterlimit="10" fill="none"/><path d="M155.652 125.422l17.66 1.86" stroke-width="1.2" stroke="#000" stroke-miterlimit="10" fill="none"/><path d="M141.668 103.203h8v11h-8zm0 0" fill="#fff"/><use xlink:href="#d" x="141.668" y="111.866" fill="#f00"/><path d="M173.313 127.28l9.554 14.97M177.79 126.53l7.644 11.974M181.5 111.523l-8.188 15.758M182.867 142.25l-5.742 16.8M182.867 142.25l17.742-.79M177.125 159.05l-16.72 5.985M200.61 141.46l4.773 7.48" stroke-width="1.2" stroke="#000" stroke-miterlimit="10" fill="none"/><path d="M205.383 148.94l4.777 7.486" stroke-width="1.2" stroke="#f00" stroke-miterlimit="10" fill="none"/><path d="M200.61 141.46l8.183-15.76M197.72 137.957l6.546-12.605" stroke-width="1.2" stroke="#000" stroke-miterlimit="10" fill="none"/><path d="M210.16 156.426l8.87-.395" stroke-width="1.2" stroke="#f00" stroke-miterlimit="10" fill="none"/><path d="M219.03 156.03l8.872-.393" stroke-width="1.2" stroke="#000" stroke-miterlimit="10" fill="none"/><path d="M206.16 150.926h8v11h-8zm0 0" fill="#fff"/><use xlink:href="#d" x="206.16" y="159.589" fill="#f00"/><path d="M237.457 170.605l-6.914-16.656-5.28 3.37zm0 0"/><path d="M237.457 170.605l-4.094 7.88" stroke-width="1.2" stroke="#000" stroke-miterlimit="10" fill="none"/><path d="M233.363 178.484l-4.093 7.88" stroke-width="1.2" stroke="#f00" stroke-miterlimit="10" fill="none"/><path d="M237.457 170.605l17.738-.792" stroke-width="1.2" stroke="#000" stroke-miterlimit="10" fill="none"/><path d="M214.27 180.863h15v11h-15zm0 0" fill="#fff"/><g fill="#f00"><use xlink:href="#c" x="214.27" y="189.526"/><use xlink:href="#d" x="221.284" y="189.526"/></g><path d="M255.195 169.813l4.778 7.484" stroke-width="1.2" stroke="#000" stroke-miterlimit="10" fill="none"/><path d="M259.973 177.297l4.777 7.484" stroke-width="1.2" stroke="#f00" stroke-miterlimit="10" fill="none"/><path d="M257.75 179.28h15v11h-15zm0 0" fill="#fff"/><g fill="#f00"><use xlink:href="#d" x="257.75" y="187.944"/><use xlink:href="#c" x="265.092" y="187.944"/></g><path d="M208.793 125.7l-9.555-14.966M199.238 110.734l-17.738.79M197.648 114.988l-14.19.633" stroke-width="1.2" stroke="#000" stroke-miterlimit="10" fill="none"/></g></svg>
